!!!OTL: Bangchui da zai shitou shang
!!!ARE: Asia, China,ˇnan Anhui
!! III, 582
!!!SCT: C1610
!!!YEM: Copyright 1995, estate of Helmut Schaffrath.
**kern
*ICvox
*Ivox
*M2/4
*k[f#]
*G:
{16e
16g
16B
16d
8d
16e
16g
=1
16g
16a
16b
16dd
16ee
16dd
16dd
16b
=2
4.a}
{16b
16dd
=3
8a
8dd
8b
16a
16b
=4
16e
16g
16e
16d
[4d
=5
4d]}
{8d
8e
=6
16e
16g
16a
16b
16dd
16b
8a
=7
4e}
{8g
8a
=8
16b
16dd
16e
16g
16e
8.d}
=9
{16e
16g
16e
16d
8d
16e
16g
=10
16g
16a
16b
16dd
16ee
16dd
8b
=11
4.a}
{16b
16dd
=12
8a
8dd
8b
16a
16b
=13
8e
16g
16e
[4d
=14
4d]}
{8d
8e
=15
16e
16g
16a
16b
16dd
16b
8a
=16
16g
8.e}
{8g
8a
=17
16b
16dd
16g
16e
4d}
=18
{16e
16g
16a
16b
16dd
16b
8a
=19
16g
8.e}
{8g
8a
=20
8dd
8e
4d}
==
!!!AGN: Shange, MengjiangnÅ diao. NannÅ qing
!!!AMT: simple duple
!!!AIN: vox
!!!EED: Helmut Schaffrath
!!!EEV: 1.0
*-
!!!ONB: Tied note syntax fixed by Craig Sapp, 2004/05/03/
